resources/svg/cactus-fill.svg

<svg fill="currentColor" viewBox="0 0 24 24" xmlns="http://www.w3.org/2000/svg"><path d="M11.998 2C14.2072 2 15.998 3.79086 15.998 6V15H16.998C17.5476 15 17.998 14.55 17.998 14V8C17.998 7.44772 18.4458 7 18.998 7C19.5503 7 19.998 7.44772 19.998 8V14C19.998 15.6569 18.6549 17 16.998 17H15.998V20H17.998V22H5.99805V20H7.99805V14H6.99805C5.34119 14 3.99805 12.6569 3.99805 11V9C3.99805 8.44772 4.44576 8 4.99805 8C5.55033 8 5.99805 8.44772 5.99805 9V11C5.99805 11.55 6.44805 12 6.99805 12C7.36471 12 7.69805 12 7.99805 12V6C7.99805 3.79086 9.78891 2 11.998 2Z"/></svg>

<svg xmlns="http://www.w3.org/2000/svg" viewBox="0 0 24 24" fill="currentColor">
    <g>
        <path fill="none" d="M0 0H24V24H0z"/>
        <path d="M12 2c2.21 0 4 1.79 4 4v9h1c.55 0 1-.45 1-1V8c0-.552.448-1 1-1s1 .448 1 1v6c0 1.657-1.343 3-3 3h-1v3h2v2H6v-2h2v-6H7c-1.657 0-3-1.343-3-3V9c0-.552.448-1 1-1s1 .448 1 1v2c0 .55.45 1 1 1h1V6c0-2.21 1.79-4 4-4z"/>
    </g>
</svg>
